usr/share/icons/biglinux-icons-material/scalable/apps/distributor-logo-kali.svg

<svg width="64" height="64" viewBox="0 0 16.933 16.933" xmlns="http://www.w3.org/2000/svg"><path d="M8.467 1.323a7.144 7.144 0 1 1 0 14.288 7.144 7.144 0 0 1 0-14.288z" fill="#2883b6" stroke-width=".963"/><path d="M7.818 3.76c.224.599.49 1.281.887 1.8-.437-.216-.923-.36-1.303-.668.047.12.03.249.026.35a5.317 5.317 0 0 1-.952-.377c.08.15.093.31.073.45-.326.03-.679-.072-.98-.126.138.125.203.29.259.456-.322.056-.654.115-.98.146.138.093.24.228.319.357-.253.212-.573.403-.834.563a.638.638 0 0 1 .463.125 9.444 9.444 0 0 1-.563.88 2.02 2.02 0 0 1 .49-.073c-.062.352-.106.72-.238 1.052.147-.107.306-.161.47-.218.157.267.173.703.231.938a.498.498 0 0 1 .258-.29c1.78 1.748 4.71 1.442 4.967 4.034.08-1.01-.398-1.724-.952-2.215-.46-.408-2.555-1.378-2.653-1.442-1.801-1.194-1.558-2.807-.29-3.215a2.727 2.727 0 0 1 3.015.946c.176.223.427.631.662.807.445.334 2.036 1.109 1.409 2.03.545-.14.961-.53 1.098-1.077-.427-.183-1.07-.57-1.019-1.112.062-.026.13-.02.199-.02-1.436-2.5-1.819-1.63-3.261-3.955.18.644.572 1.438 1.044 1.879-.783-.47-1.291-1.313-1.845-2.025zm2.95 3.155c.163.227.3.48.496.675-.19-.066-.945-.563-.496-.675z" fill="#fff"/></svg>

<?xml version="1.0" encoding="UTF-8" standalone="no"?>
<svg
   width="24"
   height="24"
   viewBox="0 0 24 24"
   fill="none"
   version="1.1"
   id="svg154"
   sodipodi:docname="distributor-logo-kali.svg"
   inkscape:version="1.2.2 (b0a8486541, 2022-12-01)"
   xml:space="preserve"
   xmlns:inkscape="http://www.inkscape.org/namespaces/inkscape"
   xmlns:sodipodi="http://sodipodi.sourceforge.net/DTD/sodipodi-0.dtd"
   xmlns:xlink="http://www.w3.org/1999/xlink"
   xmlns="http://www.w3.org/2000/svg"
   xmlns:svg="http://www.w3.org/2000/svg"
   xmlns:sketch="http://www.bohemiancoding.com/sketch/ns"><sodipodi:namedview
     id="namedview156"
     pagecolor="#ffffff"
     bordercolor="#000000"
     borderopacity="1"
     inkscape:showpageshadow="0"
     inkscape:pageopacity="1"
     inkscape:pagecheckerboard="false"
     inkscape:deskcolor="#ffffff"
     showgrid="true"
     inkscape:zoom="16"
     inkscape:cx="-0.4375"
     inkscape:cy="8.78125"
     inkscape:window-width="1920"
     inkscape:window-height="1052"
     inkscape:window-x="0"
     inkscape:window-y="0"
     inkscape:window-maximized="1"
     inkscape:current-layer="svg154"
     showguides="true"
     guidecolor="#ff0000"
     guideopacity="1"
     inkscape:lockguides="true"
     showborder="true"
     borderlayer="true"><inkscape:grid
       type="xygrid"
       id="grid356"
       color="#000000"
       opacity="0.10196078"
       empcolor="#000000"
       empopacity="0.10196078"
       snapvisiblegridlinesonly="true"
       enabled="true"
       visible="true"
       dotted="false" /><sodipodi:guide
       position="4.003125,23.042969"
       orientation="1,0"
       id="guide764"
       inkscape:locked="true" /><sodipodi:guide
       position="5.0007813,21.049219"
       orientation="1,0"
       id="guide2218"
       inkscape:locked="true" /><sodipodi:guide
       position="3.6445312,20"
       orientation="0,-1"
       id="guide2220"
       inkscape:locked="true" /><sodipodi:guide
       position="3.796875,5"
       orientation="0,-1"
       id="guide2222"
       inkscape:locked="true" /><sodipodi:guide
       position="3.625,4"
       orientation="0,-1"
       id="guide2224"
       inkscape:locked="true" /><sodipodi:guide
       position="19,4.8984375"
       orientation="1,0"
       id="guide2226"
       inkscape:locked="true" /><sodipodi:guide
       position="20,3.3312502"
       orientation="1,0"
       id="guide2228"
       inkscape:locked="true" /><sodipodi:guide
       position="22.875,19"
       orientation="0,-1"
       id="guide2230"
       inkscape:locked="true" /></sodipodi:namedview><defs
     id="defs152"><radialGradient
       id="radialGradient1281"
       cx="0"
       cy="0"
       r="1"
       gradientUnits="userSpaceOnUse"
       gradientTransform="translate(12 1) rotate(90) scale(22)"><stop
         stop-color="#8FC8FF"
         id="stop1277"
         offset="0.00424011"
         style="stop-color:#ffffff;stop-opacity:1;" /><stop
         offset="0.99151897"
         stop-color="#0056A8"
         id="stop1279"
         style="stop-color:#ffffff;stop-opacity:1;" /></radialGradient><radialGradient
       id="paint0_radial_29_23"
       cx="0"
       cy="0"
       r="1"
       gradientUnits="userSpaceOnUse"
       gradientTransform="translate(12 1) rotate(90) scale(22)"><stop
         stop-color="#8FC8FF"
         id="stop147"
         offset="0"
         style="stop-color:#f6f6f6;stop-opacity:1;" /><stop
         offset="1"
         stop-color="#0056A8"
         id="stop149"
         style="stop-color:#cfcfcf;stop-opacity:1;" /></radialGradient><radialGradient
       id="paint0_radial_10_2"
       cx="0"
       cy="0"
       r="1"
       gradientUnits="userSpaceOnUse"
       gradientTransform="matrix(-10.999959,21.999967,-21.999967,-10.999959,17.5,1)"
       xlink:href="#paint0_radial_29_23"><stop
         stop-color="#777777"
         id="stop2847" /><stop
         offset="1"
         stop-color="#222222"
         id="stop2849" /></radialGradient><linearGradient
       x1="12"
       y1="1"
       x2="12"
       y2="23"
       gradientUnits="userSpaceOnUse"
       gradientTransform="matrix(0.75,0,0,0.75,-7.98374e-6,2.65834e-5)"
       spreadMethod="pad"
       id="linearGradient44915"><stop
         style="stop-opacity:1;stop-color:#ff5f5f"
         offset="0"
         id="stop44911" /><stop
         style="stop-opacity:1;stop-color:#e82e34"
         offset="1"
         id="stop44913" /></linearGradient><radialGradient
       id="SVGID_1_"
       cx="85.226997"
       cy="71.662003"
       r="47.776001"
       gradientTransform="matrix(1,0,0,-1,0,103.8)"
       gradientUnits="userSpaceOnUse"><stop
         offset="0"
         stop-color="#00aeff"
         id="stop12" /><stop
         offset=".131"
         stop-color="#00a5f7"
         id="stop14" /><stop
         offset=".345"
         stop-color="#008de0"
         id="stop16" /><stop
         offset=".616"
         stop-color="#0065ba"
         id="stop18" /><stop
         offset=".928"
         stop-color="#002f87"
         id="stop20" /><stop
         offset="1"
         stop-color="#00217a"
         id="stop22" /></radialGradient><linearGradient
       id="SVGID_3_"
       gradientUnits="userSpaceOnUse"
       x1="92.800003"
       y1="72.949997"
       x2="130.763"
       y2="72.949997"
       gradientTransform="matrix(1,0,0,-1,0,103.8)"><stop
         offset="0"
         stop-color="#FFF"
         id="stop29" /><stop
         offset="1"
         stop-color="#FFF"
         stop-opacity="0"
         id="stop31" /></linearGradient><radialGradient
       id="SVGID_4_"
       cx="83.728996"
       cy="73.999001"
       r="8.2860003"
       gradientTransform="matrix(1,0,0,-1,0,103.8)"
       gradientUnits="userSpaceOnUse"><stop
         offset="0"
         stop-color="#FFF"
         id="stop36" /><stop
         offset=".679"
         stop-color="#7a7a7a"
         id="stop38" /><stop
         offset="1"
         stop-color="#404040"
         id="stop40" /></radialGradient><radialGradient
       fx="0"
       fy="0"
       cx="0"
       cy="0"
       r="1"
       gradientUnits="userSpaceOnUse"
       gradientTransform="matrix(0,16.5,-16.5,0,8.999996,0.750012)"
       spreadMethod="pad"
       id="radialGradient3666-6"><stop
         style="stop-color:#ffffff;stop-opacity:1;"
         offset="0"
         id="stop3662-7" /><stop
         style="stop-color:#f7da4d;stop-opacity:1;"
         offset="1"
         id="stop3664-5" /></radialGradient><clipPath
       id="a"><path
         d="M 0,0.113 H 91.887 V 92 H 0 Z m 0,0"
         id="path76179" /></clipPath><clipPath
       id="a-3"><path
         d="M 0,0.113 H 91.887 V 92 H 0 Z m 0,0"
         id="path76179-5" /></clipPath><radialGradient
       fx="0"
       fy="0"
       cx="0"
       cy="0"
       r="1"
       gradientUnits="userSpaceOnUse"
       gradientTransform="matrix(0,16.5,-16.5,0,8.999996,0.750012)"
       spreadMethod="pad"
       id="radialGradient3666-6-2"><stop
         style="stop-color:#ffffff;stop-opacity:1;"
         offset="0"
         id="stop3662-7-9" /><stop
         style="stop-color:#3dc89a;stop-opacity:1;"
         offset="1"
         id="stop3664-5-1" /></radialGradient><linearGradient
       id="paint0_linear_3_169"
       x1="12"
       y1="1"
       x2="12"
       y2="12"
       gradientUnits="userSpaceOnUse"><stop
         stop-color="#AAA2FF"
         id="stop132364" /><stop
         offset="1"
         stop-color="#7164EE"
         id="stop132366" /></linearGradient><linearGradient
       id="paint0_linear_3_169-2"
       x1="12"
       y1="1"
       x2="12"
       y2="12"
       gradientUnits="userSpaceOnUse"><stop
         stop-color="#AAA2FF"
         id="stop133305" /><stop
         offset="1"
         stop-color="#7164EE"
         id="stop133307" /></linearGradient></defs><path
     d="M 50,5 C 9.0909092,5 5,25.454546 5,50 5,82.727274 17.272728,95 50,95 82.727274,95 95,82.727274 95,50 95,25.454546 90.909093,5 50,5 Z"
     sketch:type="MSShapeGroup"
     id="path6"
     style="font-variation-settings:normal;display:inline;opacity:1;vector-effect:none;fill:#2883b6;fill-opacity:1;stroke-width:4.56656;stroke-linecap:butt;stroke-linejoin:miter;stroke-miterlimit:4;stroke-dasharray:none;stroke-dashoffset:0;stroke-opacity:1;-inkscape-stroke:none;stop-color:#000000;stop-opacity:1"
     sodipodi:nodetypes="sssss"
     inkscape:label="Shape"
     transform="matrix(0.24444444,0,0,0.24444444,-0.22222222,-0.22222222)"
     sodipodi:insensitive="true" /><g
     inkscape:groupmode="layer"
     id="layer4"
     inkscape:label="Colors References"
     style="display:none"
     sodipodi:insensitive="true"
     inkscape:highlight-color="#cc5ecc"><rect
       style="display:inline;fill:#3947be;fill-opacity:1;stroke-width:22.6872;paint-order:markers stroke fill"
       id="rect7816"
       width="1.9999923"
       height="2"
       x="12"
       y="-2.9999964"
       rx="0"
       ry="0"
       inkscape:label="Dark Blue" /><rect
       style="display:inline;fill:#6c7ad8;fill-opacity:1;stroke-width:22.6873;paint-order:markers stroke fill"
       id="rect7820"
       width="2"
       height="2.0000076"
       x="9"
       y="-3.0000041"
       rx="0"
       ry="0"
       inkscape:label="Blue" /><rect
       style="display:inline;fill:#33cc33;fill-opacity:1;stroke-width:22.6873;paint-order:markers stroke fill"
       id="rect7814"
       width="2"
       height="2.0000076"
       x="6"
       y="-3.0000041"
       rx="0"
       ry="0"
       inkscape:label="Green" /><rect
       style="display:inline;fill:#ffc328;fill-opacity:1;stroke-width:22.6872;paint-order:markers stroke fill"
       id="rect7824"
       width="1.9999926"
       height="2.0000002"
       x="3"
       y="-2.9999964"
       rx="0"
       ry="0"
       inkscape:label="Yellow" /><rect
       style="display:inline;fill:#cc5e55;fill-opacity:1;stroke-width:22.6873;paint-order:markers stroke fill"
       id="rect7822"
       width="2"
       height="2.0000076"
       x="0"
       y="-3.0000038"
       rx="0"
       ry="0"
       inkscape:label="Red" /><rect
       style="display:inline;fill:#0bb1cb;fill-opacity:1;stroke-width:22.6872;paint-order:markers stroke fill"
       id="rect3087"
       width="1.9999919"
       height="1.9999996"
       x="-3"
       y="12.000004"
       rx="0"
       ry="0"
       inkscape:label="Blue 4" /><rect
       style="display:inline;fill:#2a92c9;fill-opacity:1;stroke-width:22.6873;paint-order:markers stroke fill"
       id="rect3085"
       width="2"
       height="2.0000079"
       x="-3"
       y="8.9999962"
       rx="0"
       ry="0"
       inkscape:label="Blue 3" /><rect
       style="display:inline;fill:#006699;fill-opacity:1;stroke-width:22.6873;paint-order:markers stroke fill"
       id="rect3089"
       width="2"
       height="2.0000076"
       x="-3"
       y="6.0000038"
       rx="0"
       ry="0"
       inkscape:label="Blue 2" /><rect
       style="display:inline;fill:#002a44;fill-opacity:1;stroke-width:22.6873;paint-order:markers stroke fill"
       id="rect3083"
       width="2"
       height="2.0000076"
       x="-3"
       y="2.9999962"
       rx="0"
       ry="0"
       inkscape:label="Blue 1" /><rect
       style="display:inline;fill:#2c2d3d;fill-opacity:1;stroke-width:22.6873;paint-order:markers stroke fill"
       id="rect3456"
       width="2"
       height="2.0000076"
       x="-3"
       y="-3.8146973e-06"
       rx="0"
       ry="0"
       inkscape:label="Gray" /><rect
       style="display:inline;fill:#16171c;fill-opacity:1;stroke-width:22.6872;paint-order:markers stroke fill"
       id="rect3091"
       width="1.9999924"
       height="2"
       x="-3"
       y="-3"
       rx="0"
       ry="0"
       inkscape:label="Black" /></g><g
     id="g168873"
     transform="matrix(1.7023088,0,0,1.7023088,-2.4125975,-2.4006813)"><path
       d="M 7.818,3.76 C 8.042,4.359 8.308,5.041 8.705,5.56 8.268,5.344 7.782,5.2 7.402,4.892 c 0.047,0.12 0.03,0.249 0.026,0.35 A 5.317,5.317 0 0 1 6.476,4.865 c 0.08,0.15 0.093,0.31 0.073,0.45 C 6.223,5.345 5.87,5.243 5.569,5.189 5.707,5.314 5.772,5.479 5.828,5.645 5.506,5.701 5.174,5.76 4.848,5.791 4.986,5.884 5.088,6.019 5.167,6.148 4.914,6.36 4.594,6.551 4.333,6.711 A 0.638,0.638 0 0 1 4.796,6.836 9.444,9.444 0 0 1 4.233,7.716 2.02,2.02 0 0 1 4.723,7.643 C 4.661,7.995 4.617,8.363 4.485,8.695 4.632,8.588 4.791,8.534 4.955,8.477 5.112,8.744 5.128,9.18 5.186,9.415 a 0.498,0.498 0 0 1 0.258,-0.29 c 1.78,1.748 4.71,1.442 4.967,4.034 0.08,-1.01 -0.398,-1.724 -0.952,-2.215 C 8.999,10.536 6.904,9.566 6.806,9.502 5.005,8.308 5.248,6.695 6.516,6.287 a 2.727,2.727 0 0 1 3.015,0.946 c 0.176,0.223 0.427,0.631 0.662,0.807 0.445,0.334 2.036,1.109 1.409,2.03 C 12.147,9.93 12.563,9.54 12.7,8.993 12.273,8.81 11.63,8.423 11.681,7.881 11.743,7.855 11.811,7.861 11.88,7.861 10.444,5.361 10.061,6.231 8.619,3.906 8.799,4.55 9.191,5.344 9.663,5.785 8.88,5.315 8.372,4.472 7.818,3.76 Z m 2.95,3.155 c 0.163,0.227 0.3,0.48 0.496,0.675 -0.19,-0.066 -0.945,-0.563 -0.496,-0.675 z"
       fill="#ffffff"
       id="path168746" /></g></svg>
